X: 40
T:La Gadeliderot
M:C
L:1/8
C:Jean Duval
S:Domino
R:Reel
Q:300
K:D
"D"DFAd "G"BGBG|"D"ABAG F2 DD|"A"EDEF GFGA|"Em"BAGF "A"EGFE|
"D"DFAd "G"BGBG|"D"ABAG F2 (ABc)|"G"defg "A"edcB|1"A"cdeg "D"dBAF:|2"A"c
def "D"dcde:||
"D" fdAe fdAf|"A"edef gece|"D" fdAe fdAf|"Em"edcB "A"(ABA) GA|
"G"Bdgd "A"ceae|"Bm"dfbf "G"g2 fe|"Em"defg "A"edcB|1"A" cdef "D"dcde:|2"
A"cdef "D"dBAF
|
